X: 1
T: Fight About The Fireside
M: 4/4
L: 1/8
R: reel
K: Cmaj
|:c | GcEc Addc | GcEc GcEc | FcEc EddB | cGAF ECC :|
f | ecgc eddf | ecgc acgc | fcge dcde | GAcd e2 df |
ecgc eddf | ecgc acgc | fcge dcde | GAcd e2 dc |]
